fs/document_lock_32_regular.svg

<svg viewBox="0 0 32 32" fill="none" xmlns="http://www.w3.org/2000/svg" height="1em" width="1em">
  <path d="M8 2C6.34315 2 5 3.34315 5 5V15.9995C5.51562 15.3132 6.20375 14.7639 7 14.416V5C7 4.44772 7.44772 4 8 4H17V9C17 10.6569 18.3431 12 20 12H25V27C25 27.5523 24.5523 28 24 28H17C17 28.7286 16.8052 29.4117 16.4649 30H24C25.6569 30 27 28.6569 27 27V10.8284C27 10.0328 26.6839 9.26972 26.1213 8.70711L20.2929 2.87868C19.7303 2.31607 18.9672 2 18.1716 2H8ZM24.5858 10H20C19.4477 10 19 9.55228 19 9V4.41421L24.5858 10ZM5.5 19.5H5C3.61929 19.5 2.5 20.6193 2.5 22V28C2.5 29.3807 3.61929 30.5 5 30.5H13C14.3807 30.5 15.5 29.3807 15.5 28V22C15.5 20.6193 14.3807 19.5 13 19.5H12.5V19C12.5 17.067 10.933 15.5 9 15.5C7.067 15.5 5.5 17.067 5.5 19V19.5ZM7.5 19C7.5 18.1716 8.17157 17.5 9 17.5C9.82843 17.5 10.5 18.1716 10.5 19V19.5H7.5V19ZM11 25C11 26.1046 10.1046 27 9 27C7.89543 27 7 26.1046 7 25C7 23.8954 7.89543 23 9 23C10.1046 23 11 23.8954 11 25Z" fill="#212121"/>
</svg>

<svg viewBox="0 0 32 32" fill="none" xmlns="http://www.w3.org/2000/svg" height="1em" width="1em">
  <path d="M8 2a3 3 0 0 0-3 3v11a5.018 5.018 0 0 1 2-1.584V5a1 1 0 0 1 1-1h9v5a3 3 0 0 0 3 3h5v15a1 1 0 0 1-1 1h-7c0 .729-.195 1.412-.535 2H24a3 3 0 0 0 3-3V10.828a3 3 0 0 0-.879-2.12l-5.828-5.83A3 3 0 0 0 18.172 2H8Zm16.586 8H20a1 1 0 0 1-1-1V4.414L24.586 10ZM5.5 19.5H5A2.5 2.5 0 0 0 2.5 22v6A2.5 2.5 0 0 0 5 30.5h8a2.5 2.5 0 0 0 2.5-2.5v-6a2.5 2.5 0 0 0-2.5-2.5h-.5V19a3.5 3.5 0 1 0-7 0v.5Zm2-.5a1.5 1.5 0 0 1 3 0v.5h-3V19Zm3.5 6a2 2 0 1 1-4 0 2 2 0 0 1 4 0Z" fill="#212121"/>
</svg>
